X:1
T:Waldlüftler  Bb  ABCC
T:Franz Wallimann  (10.3.1923-14.11.2014)
T:Dirigenten-Notiz  Edi Gasser
C:Unterwalden (CH)
%%partsbox
P:ABCC
M:2/4
R:Naturjodel
L:1/4
K:Bb 
[P:A]  F>B, | DF | G/F/ B/c/ | d>B | F2 | fd/f/ | c>E | 
Ff | dc | B>D | FB | !fermata!d2 | F>B, | DF | 
G/F/ B/c/ | d>B | F2 | fd/f/ | c>E | Ff | dc | !fermata!B2 ||  
M:2/4
[P:B] G>F | EF | Ge | dc | B>c | dF | dB | A>B | 
cF | e/d/c | B>D | FB | (d2 | d>)z | G>F | EF | Ge | 
dc | B>c | dF | dB | A>B | cF | e/d/c | (B2 | B)z ||  
L:1/4
M:3/4
[P:C] D/ E/F/ | G>F E/F/ | G>e d/c/ | B>cd | F>D F/d/ | 
c>de | F>E F/c/ | B>cd | !fermata! !breath!F>D E/F/ | G>F E/F/ | G>e d/c/ | 
B>cd | F>f d/f/ | c>d e | "rit."Ffc d | (B3 | B)z |] 
W:
%W:Reihenfolge: A - B - C - C
W:notiert Edi Gasser
W:UJV-Naturjodelsammlung: Code-Nr: 30-01
W:http://www.naturjodler.ch/code 30.htm  (with AUDIO)
%May 28, 2018

